X:500
T:Royal Scots Polka 
C:Joe Buchanan's Scottish Tome - Page 475.0
I:475 0
R:Polka
Z:Carl Allison
L:1/8
M:4/4
K:D
f>e | "D"d2 A2 "G"B2 "d"A2 | "D"d2 A>d "Bm"f2 | "A7"e2 g>e c2 e>c | "A"AB cd "Em"g2 fe |
"D"d2 A2 "G"B2 "d"A2 | "D"d2 A>d f2 "D7"e>f | "Em"g2 e>c "A7"A>c e>g | "D"f2 "G"d2 "D"d2 :|
f>g | "D"a2> g2 "G"f2 "d"d2 | "D"A2 d>f a2 "A"e>f | "Em"g2> e2 "A7"c2 e2 | "A7"Ac ef "G"g2 f>g |
"D"a2> g2 f2 d2 | "D"fA d>f "Am"a2 e>f | "Em"g2 e>c Ac "A7"eg | "D"f2 d2 "G"d2 "D"f>g |
"D"a2> g2 f2 d2 | "D"A2 d>f "Am"a2 e>f | "Em"g2> e2 "A"c2 e2 | "A7"Ac ef "G"g2 f>e |
"D"a>g g>f f>e e>d | "D"d>c c>B "A"{A}a2 e>f | "Em"g2 e>c Ac "A7"eg | "D"f2 "G"d2 "D"d2 |]
g>e | "D"d2 c>d "G"B2 "D"A2 | "D"d2 A>d "Bm"f4 | "A7"e2 g>e c2 e>c | "A"Ac ef "Em"g2 f>e |
"D"d2 c>d "G"B2 "D"A2 | "D"d2 A>d f2 "D7"e>f | "Em"g2 e>c "A7"A>c eg | "D"f2 "G"d2 "D"d2 |
f>g | "D"a2> g2 f2 d2 | "D"f>g a>g f2 e>f | "Em"g2 e2 "A"c2 e2 | "A7"Ac ef "G"g2 f>g |
"D"a2> g2 f2 d2 | "D"f>g a>g f2 "D7"e>f | "Em"g2 e>c A>c "A7"e>g | "D"f2 d2 "G"d2 "D"f>g |
"D"a2> g2 f2 d2 | "Em"f>g a>g "A"f2 e>f | "Em"g2> e2 "A"c2 e2 | "A7"Ac ef "G"g2 f>e |
"D"d>c c>B B>A "A7"A>B | "D"d2 A>d f2 "D7"e>f | "Em"g2 e>c "A7"A>c eg | "D"f2 "G"d2 "D"d2 |]

